X: 5128
T: Bridgett's
R: reel
M: 4/4
K: Adorian
|:A3B ~c2cd|e2dc B2d2|G2GA ~B2Bc|d2cB c2e2|
A2AB ~c2cd|e2dc B2G2|g2ag e2dB|1 e2dB A2E2:|2 e2dB A3d||
|:e2a2 a2ba|~g2ed ~e2dB|G2g2 g2ag|~f2ed B2AG|
A2a2 a2ba|~g2ed ~e2eg|edBd e2dB|1 B2A2 A2Ad:|2 B2A2 A2E2||

